exports/share-of-the-workforce-employed-in-the-coal-industry-united-kingdom_v2_850x600.svg

<svg xmlns="http://www.w3.org/2000/svg" version="1.1" style="background-color:#fff;-webkit-font-smoothing:antialiased" width="850" height="600" font-family="'Helvetica Neue',Helvetica,Arial,sans-serif" font-size="18" text-rendering="optimizeLegibility"><g class="ChartTab"><g class="HeaderView"><g opacity=".8" transform="matrix(.27 0 0 .27 778 15)"><a xmlns:xlink="http://www.w3.org/1999/xlink" xlink:href="https://ourworldindata.org" target="_blank"><g><path fill="#1B2543" d="M0 0h211.2v130.1H0z"/><path fill="#E63912" d="M0 112.2h211.2v17.9H0z"/><g><path fill="none" d="M1.2 12.3h210.2v99.2H1.2z"/><path fill="#FFF" d="M37.8 32.2c0 12.7-7.7 19.4-17.1 19.4-9.7 0-16.6-7.5-16.6-18.7 0-11.7 7.3-19.3 17.1-19.3 10.1.1 16.6 7.7 16.6 18.6zm-28.6.6c0 7.9 4.3 14.9 11.8 14.9 7.5 0 11.8-6.9 11.8-15.3 0-7.3-3.8-14.9-11.8-14.9-7.9 0-11.8 7.3-11.8 15.3zM62.7 43.8c0 2.7.1 5.1.2 7.2h-4.3l-.3-4.3h-.1c-1.3 2.1-4 4.9-8.8 4.9-4.2 0-9.1-2.3-9.1-11.6V24.6h4.8v14.6c0 5 1.5 8.4 5.9 8.4 3.2 0 5.5-2.2 6.3-4.4.3-.7.4-1.6.4-2.5V24.6h4.8v19.2zM67.3 32.8c0-3.1-.1-5.8-.2-8.2h4.2l.2 5.2h.2c1.2-3.5 4.1-5.8 7.3-5.8.5 0 .9.1 1.4.2v4.5c-.5-.1-1-.2-1.6-.2-3.4 0-5.8 2.6-6.5 6.2-.1.7-.2 1.4-.2 2.2V51h-4.8V32.8zM95.4 51L86 14.2h5l4.4 18.6c1.1 4.6 2.1 9.2 2.7 12.7h.1c.6-3.7 1.8-8 3-12.8l4.9-18.5h5l4.5 18.7c1 4.4 2 8.7 2.6 12.6h.1c.8-4 1.8-8.1 3-12.7l4.9-18.5h4.9L120.6 51h-5L111 31.9c-1.1-4.7-1.9-8.3-2.4-12h-.1c-.7 3.7-1.5 7.3-2.8 12L100.4 51h-5zM154.9 37.6c0 9.8-6.8 14-13.2 14-7.2 0-12.7-5.2-12.7-13.6 0-8.8 5.8-14 13.1-14 7.7 0 12.8 5.5 12.8 13.6zm-21 .3c0 5.8 3.3 10.1 8 10.1 4.6 0 8-4.3 8-10.3 0-4.5-2.2-10.1-7.9-10.1s-8.1 5.2-8.1 10.3zM158.2 32.8c0-3.1-.1-5.8-.2-8.2h4.2l.2 5.2h.2c1.2-3.5 4.1-5.8 7.3-5.8.5 0 .9.1 1.4.2v4.5c-.5-.1-1-.2-1.6-.2-3.4 0-5.8 2.6-6.5 6.2-.1.7-.2 1.4-.2 2.2V51h-4.8V32.8zM173.5 12.3h4.8V51h-4.8V12.3zM206.5 12.3v31.9c0 2.3.1 5 .2 6.8h-4.3l-.2-4.6h-.2c-1.5 2.9-4.7 5.2-9 5.2-6.4 0-11.3-5.4-11.3-13.4-.1-8.8 5.4-14.2 11.9-14.2 4 0 6.8 1.9 8 4h.1V12.3h4.8zm-4.8 23.1c0-.6-.1-1.4-.2-2a7 7 0 00-6.9-5.6c-5 0-7.9 4.4-7.9 10.2 0 5.3 2.6 9.8 7.8 9.8 3.2 0 6.2-2.1 7.1-5.7.2-.7.2-1.3.2-2.1v-4.6zM42.8 64c.1 1.6-1.1 2.9-3.1 2.9-1.7 0-2.9-1.3-2.9-2.9 0-1.7 1.3-3 3-3 1.9 0 3 1.3 3 3zm-5.4 33.8V71.4h4.8v26.4h-4.8zM47.5 78.6c0-2.7-.1-5-.2-7.1h4.3l.3 4.4h.1c1.3-2.5 4.4-5 8.8-5 3.7 0 9.4 2.2 9.4 11.2v15.8h-4.8V82.6c0-4.3-1.6-7.8-6.1-7.8-3.2 0-5.6 2.2-6.5 4.9-.2.6-.3 1.4-.3 2.2v15.9h-4.8V78.6zM84 61.6c2.9-.4 6.3-.8 10.1-.8 6.8 0 11.7 1.6 14.9 4.6 3.3 3 5.2 7.3 5.2 13.2 0 6-1.9 10.9-5.3 14.3-3.4 3.4-9.1 5.3-16.3 5.3-3.4 0-6.2-.2-8.6-.4V61.6zm4.8 32.5c1.2.2 3 .3 4.8.3 10.2 0 15.7-5.7 15.7-15.6.1-8.7-4.9-14.2-14.9-14.2-2.5 0-4.3.2-5.6.5v29zM132.1 97.8l-.4-3.3h-.2a9.79 9.79 0 01-8.1 3.9c-5.4 0-8.1-3.8-8.1-7.6 0-6.4 5.7-9.9 15.9-9.8v-.5c0-2.2-.6-6.1-6-6.1-2.5 0-5 .8-6.9 2l-1.1-3.2c2.2-1.4 5.4-2.3 8.7-2.3 8.1 0 10.1 5.5 10.1 10.8v9.9c0 2.3.1 4.5.4 6.3h-4.3zm-.7-13.4c-5.3-.1-11.2.8-11.2 5.9 0 3.1 2.1 4.6 4.5 4.6 3.4 0 5.6-2.2 6.4-4.4.2-.5.3-1 .3-1.5v-4.6zM146.6 63.9v7.6h6.9v3.7h-6.9v14.2c0 3.3.9 5.1 3.6 5.1 1.3 0 2.2-.2 2.8-.3l.2 3.6c-.9.4-2.4.7-4.3.7-2.2 0-4-.7-5.2-2-1.4-1.4-1.9-3.8-1.9-6.9V75.1h-4.1v-3.7h4.1v-6.3l4.8-1.2zM171.4 97.8l-.4-3.3h-.2a9.79 9.79 0 01-8.1 3.9c-5.4 0-8.1-3.8-8.1-7.6 0-6.4 5.7-9.9 15.9-9.8v-.5c0-2.2-.6-6.1-6-6.1-2.5 0-5 .8-6.9 2l-1.1-3.2c2.2-1.4 5.4-2.3 8.7-2.3 8.1 0 10.1 5.5 10.1 10.8v9.9c0 2.3.1 4.5.4 6.3h-4.3zm-.7-13.4c-5.3-.1-11.2.8-11.2 5.9 0 3.1 2.1 4.6 4.5 4.6 3.4 0 5.6-2.2 6.4-4.4.2-.5.3-1 .3-1.5v-4.6z"/></g></g></a></g><a href="https://ourworldindata.org/grapher/share-of-the-workforce-employed-in-the-coal-industry-united-kingdom" target="_blank"><text font-size="23.4" x="15" y="33.7" fill="#555"><tspan x="15" y="33.72">Share of the workforce employed in the coal industry, United Kingdom</tspan></text></a><text font-size="14.4" x="15" y="51.9" fill="#666"><tspan x="15" y="51.92">The share of workers employed in coal production, measured as the percentage of the total workforce directly</tspan><tspan x="15" y="67.76">employed or contracted by the coal industry.</tspan></text></g><g class="LineChart"><defs><clipPath id="a"><path d="M33.49 0h830v903.2h-830z"/></clipPath></defs><g class="AxisBoxView"><g class="HorizontalAxis" fill="#666" text-anchor="middle" font-size="16.2"><text x="43.5" y="541.9">1873</text><text x="167.3" y="541.9">1900</text><text x="258.9" y="541.9">1920</text><text x="350.6" y="541.9">1940</text><text x="442.3" y="541.9">1960</text><text x="534" y="541.9">1980</text><text x="625.7" y="541.9">2000</text><text x="703.6" y="541.9">2017</text></g><g class="VerticalAxis" fill="#666" dominant-baseline="middle" text-anchor="end" font-size="16.2"><text x="38.49" y="520.7">0%</text><text x="38.49" y="447.8">1%</text><text x="38.49" y="374.8">2%</text><text x="38.49" y="301.9">3%</text><text x="38.49" y="228.9">4%</text><text x="38.49" y="156">5%</text></g><g class="AxisGridLines"><path stroke="#ccc" d="M43.49 520.7h660.12"/><path stroke="#ddd" stroke-dasharray="3,2" d="M43.49 447.8h660.12M43.49 374.8h660.12M43.49 301.9h660.12M43.49 228.9h660.12M43.49 156h660.12"/></g></g><g clip-path="url(#a)"><g class="HeightedLegend clickable"><g class="legendMark"><text font-size="13.5" x="708.6" y="524.8" fill="#3360a9"><tspan x="708.61" y="524.75">United Kingdom</tspan></text></g></g><g class="Lines"><g class="key-United-Kingdom_0"><path stroke="#3360a9" stroke-linecap="round" d="M44 281l45-15 46-41 46-53 46-41 4 28 5 39 5-14 4-4 5 7 4-46 5-15 9-6 5-27 4-3 5 39 9 38 5 31h4l5 13 4 28 5 19 5 10 4 1 5 7 4 4 5-4 5 4 4 5 5 7 4 20 5 2 4 2 5-3 5-4 4-4 5-5 4-4 5 2 5 9 4 2 5-3h4l5 4 4 2 5 3 5-1 4 2 5 6 4 19 5 12 5 7 4 9 5 8 4 15 5 11 4 8 5 16 5 7 4 4 5 1 4 4 5 7h9l5 1 4 1 5 2h4l5 3 5 17 4 2 5 5 4 3 5 7 5 6 4 4 5 2 4 4 5 1 4 3 5 2 5 5 4 1 5-1h4l5-1 5 1h13l5 1h46l4 1h9l5 1h5" fill="none" stroke-width="1.5"/><g fill="#3360a9"><circle cx="44" cy="281" r="2"/><circle cx="89" cy="266" r="2"/><circle cx="135" cy="225" r="2"/><circle cx="181" cy="172" r="2"/><circle cx="227" cy="131" r="2"/><circle cx="231" cy="159" r="2"/><circle cx="236" cy="198" r="2"/><circle cx="241" cy="184" r="2"/><circle cx="245" cy="180" r="2"/><circle cx="250" cy="187" r="2"/><circle cx="254" cy="141" r="2"/><circle cx="259" cy="126" r="2"/><circle cx="268" cy="120" r="2"/><circle cx="273" cy="93" r="2"/><circle cx="277" cy="90" r="2"/><circle cx="282" cy="129" r="2"/><circle cx="291" cy="167" r="2"/><circle cx="296" cy="198" r="2"/><circle cx="300" cy="198" r="2"/><circle cx="305" cy="211" r="2"/><circle cx="309" cy="239" r="2"/><circle cx="314" cy="258" r="2"/><circle cx="319" cy="268" r="2"/><circle cx="323" cy="269" r="2"/><circle cx="328" cy="276" r="2"/><circle cx="332" cy="280" r="2"/><circle cx="337" cy="276" r="2"/><circle cx="342" cy="280" r="2"/><circle cx="346" cy="285" r="2"/><circle cx="351" cy="292" r="2"/><circle cx="355" cy="312" r="2"/><circle cx="360" cy="314" r="2"/><circle cx="364" cy="316" r="2"/><circle cx="369" cy="313" r="2"/><circle cx="374" cy="309" r="2"/><circle cx="378" cy="305" r="2"/><circle cx="383" cy="300" r="2"/><circle cx="387" cy="296" r="2"/><circle cx="392" cy="298" r="2"/><circle cx="397" cy="307" r="2"/><circle cx="401" cy="309" r="2"/><circle cx="406" cy="306" r="2"/><circle cx="410" cy="306" r="2"/><circle cx="415" cy="310" r="2"/><circle cx="419" cy="312" r="2"/><circle cx="424" cy="315" r="2"/><circle cx="429" cy="314" r="2"/><circle cx="433" cy="316" r="2"/><circle cx="438" cy="322" r="2"/><circle cx="442" cy="341" r="2"/><circle cx="447" cy="353" r="2"/><circle cx="452" cy="360" r="2"/><circle cx="456" cy="369" r="2"/><circle cx="461" cy="377" r="2"/><circle cx="465" cy="392" r="2"/><circle cx="470" cy="403" r="2"/><circle cx="474" cy="411" r="2"/><circle cx="479" cy="427" r="2"/><circle cx="484" cy="434" r="2"/><circle cx="488" cy="438" r="2"/><circle cx="493" cy="439" r="2"/><circle cx="497" cy="443" r="2"/><circle cx="502" cy="450" r="2"/><circle cx="507" cy="450" r="2"/><circle cx="511" cy="450" r="2"/><circle cx="516" cy="451" r="2"/><circle cx="520" cy="452" r="2"/><circle cx="525" cy="454" r="2"/><circle cx="529" cy="454" r="2"/><circle cx="534" cy="457" r="2"/><circle cx="539" cy="474" r="2"/><circle cx="543" cy="476" r="2"/><circle cx="548" cy="481" r="2"/><circle cx="552" cy="484" r="2"/><circle cx="557" cy="491" r="2"/><circle cx="562" cy="497" r="2"/><circle cx="566" cy="501" r="2"/><circle cx="571" cy="503" r="2"/><circle cx="575" cy="507" r="2"/><circle cx="580" cy="508" r="2"/><circle cx="584" cy="511" r="2"/><circle cx="589" cy="513" r="2"/><circle cx="594" cy="518" r="2"/><circle cx="598" cy="519" r="2"/><circle cx="603" cy="518" r="2"/><circle cx="607" cy="518" r="2"/><circle cx="612" cy="517" r="2"/><circle cx="617" cy="518" r="2"/><circle cx="621" cy="518" r="2"/><circle cx="626" cy="518" r="2"/><circle cx="630" cy="518" r="2"/><circle cx="635" cy="519" r="2"/><circle cx="639" cy="519" r="2"/><circle cx="644" cy="519" r="2"/><circle cx="649" cy="519" r="2"/><circle cx="653" cy="519" r="2"/><circle cx="658" cy="519" r="2"/><circle cx="662" cy="519" r="2"/><circle cx="667" cy="519" r="2"/><circle cx="672" cy="519" r="2"/><circle cx="676" cy="519" r="2"/><circle cx="681" cy="519" r="2"/><circle cx="685" cy="520" r="2"/><circle cx="690" cy="520" r="2"/><circle cx="694" cy="520" r="2"/><circle cx="699" cy="521" r="2"/><circle cx="704" cy="521" r="2"/></g></g></g></g></g><g class="SourcesFooter" fill="#777"><g class="clickable" fill="#777"><text font-size="12.6" x="15" y="567"><tspan x="15" y="566.98">Source: UK Department for Energy and Climate Change (DECC); Bank of England Statistics</tspan></text></g><text font-size="12.6" x="15" y="582.5"><tspan x="15" y="582.48"><a target="_blank" href="https://ourworldindata.org/wp-content/uploads/2016/07/SOM_SwedishTrustPeople-150x92.png" fill="#777">OurWorldInData.org/wp-content/uploads/2016/07/SOM_SwedishTrustPeople-150x92.png</a> • <a class="cclogo" href="http://creativecommons.org/licenses/by-sa/4.0/deed.en_US" target="_blank" fill="#777">CC BY-SA</a></tspan></text></g></g></svg>

<svg xmlns="http://www.w3.org/2000/svg" version="1.1" style="font-family:&#x27;Helvetica Neue&#x27;, Helvetica, Arial, sans-serif;font-size:18px;background-color:white;text-rendering:optimizeLegibility;-webkit-font-smoothing:antialiased" width="850" height="600"><g class="ChartTab"><g class="HeaderView"><g opacity="0.8" transform="translate(778, 15) scale(0.27)"><a xmlns:xlink="http://www.w3.org/1999/xlink" xlink:href="https://ourworldindata.org" target="_blank"><g><rect x="0" y="0" fill="#1B2543" width="211.2" height="130.1"/><rect x="0" y="112.2" fill="#E63912" width="211.2" height="17.9"/><g><rect x="1.2" y="12.3" fill="none" width="210.2" height="99.2"/><path fill="#FFFFFF" d="M37.8,32.2c0,12.7-7.7,19.4-17.1,19.4c-9.7,0-16.6-7.5-16.6-18.7c0-11.7,7.3-19.3,17.1-19.3 C31.3,13.7,37.8,21.3,37.8,32.2z M9.2,32.8c0,7.9,4.3,14.9,11.8,14.9c7.5,0,11.8-6.9,11.8-15.3c0-7.3-3.8-14.9-11.8-14.9 C13.1,17.5,9.2,24.8,9.2,32.8z"/><path fill="#FFFFFF" d="M62.7,43.8c0,2.7,0.1,5.1,0.2,7.2h-4.3l-0.3-4.3h-0.1c-1.3,2.1-4,4.9-8.8,4.9c-4.2,0-9.1-2.3-9.1-11.6 V24.6h4.8v14.6c0,5,1.5,8.4,5.9,8.4c3.2,0,5.5-2.2,6.3-4.4c0.3-0.7,0.4-1.6,0.4-2.5V24.6h4.8V43.8z"/><path fill="#FFFFFF" d="M67.3,32.8c0-3.1-0.1-5.8-0.2-8.2h4.2l0.2,5.2h0.2c1.2-3.5,4.1-5.8,7.3-5.8c0.5,0,0.9,0.1,1.4,0.2v4.5 c-0.5-0.1-1-0.2-1.6-0.2c-3.4,0-5.8,2.6-6.5,6.2c-0.1,0.7-0.2,1.4-0.2,2.2V51h-4.8V32.8z"/><path fill="#FFFFFF" d="M95.4,51l-9.4-36.8h5l4.4,18.6c1.1,4.6,2.1,9.2,2.7,12.7h0.1c0.6-3.7,1.8-8,3-12.8l4.9-18.5h5l4.5,18.7 c1,4.4,2,8.7,2.6,12.6h0.1c0.8-4,1.8-8.1,3-12.7l4.9-18.5h4.9L120.6,51h-5L111,31.9c-1.1-4.7-1.9-8.3-2.4-12h-0.1 c-0.7,3.7-1.5,7.3-2.8,12L100.4,51H95.4z"/><path fill="#FFFFFF" d="M154.9,37.6c0,9.8-6.8,14-13.2,14c-7.2,0-12.7-5.2-12.7-13.6c0-8.8,5.8-14,13.1-14 C149.8,24,154.9,29.5,154.9,37.6z M133.9,37.9c0,5.8,3.3,10.1,8,10.1c4.6,0,8-4.3,8-10.3c0-4.5-2.2-10.1-7.9-10.1 C136.3,27.6,133.9,32.8,133.9,37.9z"/><path fill="#FFFFFF" d="M158.2,32.8c0-3.1-0.1-5.8-0.2-8.2h4.2l0.2,5.2h0.2c1.2-3.5,4.1-5.8,7.3-5.8c0.5,0,0.9,0.1,1.4,0.2v4.5 c-0.5-0.1-1-0.2-1.6-0.2c-3.4,0-5.8,2.6-6.5,6.2c-0.1,0.7-0.2,1.4-0.2,2.2V51h-4.8V32.8z"/><path fill="#FFFFFF" d="M173.5,12.3h4.8V51h-4.8V12.3z"/><path fill="#FFFFFF" d="M206.5,12.3v31.9c0,2.3,0.1,5,0.2,6.8h-4.3l-0.2-4.6H202c-1.5,2.9-4.7,5.2-9,5.2 c-6.4,0-11.3-5.4-11.3-13.4c-0.1-8.8,5.4-14.2,11.9-14.2c4,0,6.8,1.9,8,4h0.1V12.3H206.5z M201.7,35.4c0-0.6-0.1-1.4-0.2-2 c-0.7-3.1-3.3-5.6-6.9-5.6c-5,0-7.9,4.4-7.9,10.2c0,5.3,2.6,9.8,7.8,9.8c3.2,0,6.2-2.1,7.1-5.7c0.2-0.7,0.2-1.3,0.2-2.1V35.4z"/><path fill="#FFFFFF" d="M42.8,64c0.1,1.6-1.1,2.9-3.1,2.9c-1.7,0-2.9-1.3-2.9-2.9c0-1.7,1.3-3,3-3C41.7,61,42.8,62.3,42.8,64z M37.4,97.8V71.4h4.8v26.4H37.4z"/><path fill="#FFFFFF" d="M47.5,78.6c0-2.7-0.1-5-0.2-7.1h4.3l0.3,4.4h0.1c1.3-2.5,4.4-5,8.8-5c3.7,0,9.4,2.2,9.4,11.2v15.8h-4.8 V82.6c0-4.3-1.6-7.8-6.1-7.8c-3.2,0-5.6,2.2-6.5,4.9c-0.2,0.6-0.3,1.4-0.3,2.2v15.9h-4.8V78.6z"/><path fill="#FFFFFF" d="M84,61.6c2.9-0.4,6.3-0.8,10.1-0.8c6.8,0,11.7,1.6,14.9,4.6c3.3,3,5.2,7.3,5.2,13.2c0,6-1.9,10.9-5.3,14.3 c-3.4,3.4-9.1,5.3-16.3,5.3c-3.4,0-6.2-0.2-8.6-0.4V61.6z M88.8,94.1c1.2,0.2,3,0.3,4.8,0.3c10.2,0,15.7-5.7,15.7-15.6 c0.1-8.7-4.9-14.2-14.9-14.2c-2.5,0-4.3,0.2-5.6,0.5V94.1z"/><path fill="#FFFFFF" d="M132.1,97.8l-0.4-3.3h-0.2c-1.5,2.1-4.3,3.9-8.1,3.9c-5.4,0-8.1-3.8-8.1-7.6c0-6.4,5.7-9.9,15.9-9.8v-0.5 c0-2.2-0.6-6.1-6-6.1c-2.5,0-5,0.8-6.9,2l-1.1-3.2c2.2-1.4,5.4-2.3,8.7-2.3c8.1,0,10.1,5.5,10.1,10.8v9.9c0,2.3,0.1,4.5,0.4,6.3 H132.1z M131.4,84.4c-5.3-0.1-11.2,0.8-11.2,5.9c0,3.1,2.1,4.6,4.5,4.6c3.4,0,5.6-2.2,6.4-4.4c0.2-0.5,0.3-1,0.3-1.5V84.4z"/><path fill="#FFFFFF" d="M146.6,63.9v7.6h6.9v3.7h-6.9v14.2c0,3.3,0.9,5.1,3.6,5.1c1.3,0,2.2-0.2,2.8-0.3l0.2,3.6 c-0.9,0.4-2.4,0.7-4.3,0.7c-2.2,0-4-0.7-5.2-2c-1.4-1.4-1.9-3.8-1.9-6.9V75.1h-4.1v-3.7h4.1v-6.3L146.6,63.9z"/><path fill="#FFFFFF" d="M171.4,97.8l-0.4-3.3h-0.2c-1.5,2.1-4.3,3.9-8.1,3.9c-5.4,0-8.1-3.8-8.1-7.6c0-6.4,5.7-9.9,15.9-9.8v-0.5 c0-2.2-0.6-6.1-6-6.1c-2.5,0-5,0.8-6.9,2l-1.1-3.2c2.2-1.4,5.4-2.3,8.7-2.3c8.1,0,10.1,5.5,10.1,10.8v9.9c0,2.3,0.1,4.5,0.4,6.3 H171.4z M170.7,84.4c-5.3-0.1-11.2,0.8-11.2,5.9c0,3.1,2.1,4.6,4.5,4.6c3.4,0,5.6-2.2,6.4-4.4c0.2-0.5,0.3-1,0.3-1.5V84.4z"/></g></g></a></g><a href="https://ourworldindata.org/grapher/share-of-the-workforce-employed-in-the-coal-industry-united-kingdom" target="_blank"><text font-size="23.40" x="15.0" y="33.7" fill="#555"><tspan x="15" y="33.72">Share of the workforce employed in the coal industry, United Kingdom</tspan></text></a><text font-size="14.40" x="15.0" y="51.9" fill="#666"><tspan x="15" y="51.919999999999995">The share of workers employed in coal production, measured as the percentage of the total workforce directly</tspan><tspan x="15" y="67.75999999999999">employed or contracted by the coal industry.</tspan></text></g><g class="LineChart"><defs><clipPath id="boundsClip-4"><rect x="33.49" y="0" width="830" height="903.2"></rect></clipPath></defs><g class="AxisBoxView"><g class="HorizontalAxis"><text x="43.5" y="541.9" fill="#666" text-anchor="middle" font-size="16.2">1873</text><text x="167.3" y="541.9" fill="#666" text-anchor="middle" font-size="16.2">1900</text><text x="258.9" y="541.9" fill="#666" text-anchor="middle" font-size="16.2">1920</text><text x="350.6" y="541.9" fill="#666" text-anchor="middle" font-size="16.2">1940</text><text x="442.3" y="541.9" fill="#666" text-anchor="middle" font-size="16.2">1960</text><text x="534" y="541.9" fill="#666" text-anchor="middle" font-size="16.2">1980</text><text x="625.7" y="541.9" fill="#666" text-anchor="middle" font-size="16.2">2000</text><text x="703.6" y="541.9" fill="#666" text-anchor="middle" font-size="16.2">2017</text></g><g class="VerticalAxis"><text x="38.49" y="520.7" fill="#666" dominant-baseline="middle" text-anchor="end" font-size="16.2">0%</text><text x="38.49" y="447.8" fill="#666" dominant-baseline="middle" text-anchor="end" font-size="16.2">1%</text><text x="38.49" y="374.8" fill="#666" dominant-baseline="middle" text-anchor="end" font-size="16.2">2%</text><text x="38.49" y="301.9" fill="#666" dominant-baseline="middle" text-anchor="end" font-size="16.2">3%</text><text x="38.49" y="228.9" fill="#666" dominant-baseline="middle" text-anchor="end" font-size="16.2">4%</text><text x="38.49" y="156" fill="#666" dominant-baseline="middle" text-anchor="end" font-size="16.2">5%</text></g><g class="AxisGridLines"><line x1="43.49" y1="520.7" x2="703.61" y2="520.7" stroke="#ccc"></line><line x1="43.49" y1="447.8" x2="703.61" y2="447.8" stroke="#ddd" stroke-dasharray="3,2"></line><line x1="43.49" y1="374.8" x2="703.61" y2="374.8" stroke="#ddd" stroke-dasharray="3,2"></line><line x1="43.49" y1="301.9" x2="703.61" y2="301.9" stroke="#ddd" stroke-dasharray="3,2"></line><line x1="43.49" y1="228.9" x2="703.61" y2="228.9" stroke="#ddd" stroke-dasharray="3,2"></line><line x1="43.49" y1="156" x2="703.61" y2="156" stroke="#ddd" stroke-dasharray="3,2"></line></g></g><g clip-path="url(#boundsClip-4)"><g class="HeightedLegend clickable"><g class="legendMark"><rect x="703.61" y="513.95" width="131.39" height="13.5" fill="#fff" opacity="0"></rect><text font-size="13.50" x="708.6" y="524.8" fill="#3360a9"><tspan x="708.61" y="524.75">United Kingdom</tspan></text></g></g><g class="Lines"><rect x="43" y="90" width="660" height="430" fill="rgba(255,255,255,0)" opacity="0"></rect><g class="key-United-Kingdom_0"><path stroke="#3360a9" stroke-linecap="round" d="M44 281L89 266L135 225L181 172L227 131L231 159L236 198L241 184L245 180L250 187L254 141L259 126L268 120L273 93L277 90L282 129L291 167L296 198L300 198L305 211L309 239L314 258L319 268L323 269L328 276L332 280L337 276L342 280L346 285L351 292L355 312L360 314L364 316L369 313L374 309L378 305L383 300L387 296L392 298L397 307L401 309L406 306L410 306L415 310L419 312L424 315L429 314L433 316L438 322L442 341L447 353L452 360L456 369L461 377L465 392L470 403L474 411L479 427L484 434L488 438L493 439L497 443L502 450L507 450L511 450L516 451L520 452L525 454L529 454L534 457L539 474L543 476L548 481L552 484L557 491L562 497L566 501L571 503L575 507L580 508L584 511L589 513L594 518L598 519L603 518L607 518L612 517L617 518L621 518L626 518L630 518L635 519L639 519L644 519L649 519L653 519L658 519L662 519L667 519L672 519L676 519L681 519L685 520L690 520L694 520L699 521L704 521" fill="none" stroke-width="1.5"></path><g fill="#3360a9"><circle cx="44" cy="281" r="2"></circle><circle cx="89" cy="266" r="2"></circle><circle cx="135" cy="225" r="2"></circle><circle cx="181" cy="172" r="2"></circle><circle cx="227" cy="131" r="2"></circle><circle cx="231" cy="159" r="2"></circle><circle cx="236" cy="198" r="2"></circle><circle cx="241" cy="184" r="2"></circle><circle cx="245" cy="180" r="2"></circle><circle cx="250" cy="187" r="2"></circle><circle cx="254" cy="141" r="2"></circle><circle cx="259" cy="126" r="2"></circle><circle cx="268" cy="120" r="2"></circle><circle cx="273" cy="93" r="2"></circle><circle cx="277" cy="90" r="2"></circle><circle cx="282" cy="129" r="2"></circle><circle cx="291" cy="167" r="2"></circle><circle cx="296" cy="198" r="2"></circle><circle cx="300" cy="198" r="2"></circle><circle cx="305" cy="211" r="2"></circle><circle cx="309" cy="239" r="2"></circle><circle cx="314" cy="258" r="2"></circle><circle cx="319" cy="268" r="2"></circle><circle cx="323" cy="269" r="2"></circle><circle cx="328" cy="276" r="2"></circle><circle cx="332" cy="280" r="2"></circle><circle cx="337" cy="276" r="2"></circle><circle cx="342" cy="280" r="2"></circle><circle cx="346" cy="285" r="2"></circle><circle cx="351" cy="292" r="2"></circle><circle cx="355" cy="312" r="2"></circle><circle cx="360" cy="314" r="2"></circle><circle cx="364" cy="316" r="2"></circle><circle cx="369" cy="313" r="2"></circle><circle cx="374" cy="309" r="2"></circle><circle cx="378" cy="305" r="2"></circle><circle cx="383" cy="300" r="2"></circle><circle cx="387" cy="296" r="2"></circle><circle cx="392" cy="298" r="2"></circle><circle cx="397" cy="307" r="2"></circle><circle cx="401" cy="309" r="2"></circle><circle cx="406" cy="306" r="2"></circle><circle cx="410" cy="306" r="2"></circle><circle cx="415" cy="310" r="2"></circle><circle cx="419" cy="312" r="2"></circle><circle cx="424" cy="315" r="2"></circle><circle cx="429" cy="314" r="2"></circle><circle cx="433" cy="316" r="2"></circle><circle cx="438" cy="322" r="2"></circle><circle cx="442" cy="341" r="2"></circle><circle cx="447" cy="353" r="2"></circle><circle cx="452" cy="360" r="2"></circle><circle cx="456" cy="369" r="2"></circle><circle cx="461" cy="377" r="2"></circle><circle cx="465" cy="392" r="2"></circle><circle cx="470" cy="403" r="2"></circle><circle cx="474" cy="411" r="2"></circle><circle cx="479" cy="427" r="2"></circle><circle cx="484" cy="434" r="2"></circle><circle cx="488" cy="438" r="2"></circle><circle cx="493" cy="439" r="2"></circle><circle cx="497" cy="443" r="2"></circle><circle cx="502" cy="450" r="2"></circle><circle cx="507" cy="450" r="2"></circle><circle cx="511" cy="450" r="2"></circle><circle cx="516" cy="451" r="2"></circle><circle cx="520" cy="452" r="2"></circle><circle cx="525" cy="454" r="2"></circle><circle cx="529" cy="454" r="2"></circle><circle cx="534" cy="457" r="2"></circle><circle cx="539" cy="474" r="2"></circle><circle cx="543" cy="476" r="2"></circle><circle cx="548" cy="481" r="2"></circle><circle cx="552" cy="484" r="2"></circle><circle cx="557" cy="491" r="2"></circle><circle cx="562" cy="497" r="2"></circle><circle cx="566" cy="501" r="2"></circle><circle cx="571" cy="503" r="2"></circle><circle cx="575" cy="507" r="2"></circle><circle cx="580" cy="508" r="2"></circle><circle cx="584" cy="511" r="2"></circle><circle cx="589" cy="513" r="2"></circle><circle cx="594" cy="518" r="2"></circle><circle cx="598" cy="519" r="2"></circle><circle cx="603" cy="518" r="2"></circle><circle cx="607" cy="518" r="2"></circle><circle cx="612" cy="517" r="2"></circle><circle cx="617" cy="518" r="2"></circle><circle cx="621" cy="518" r="2"></circle><circle cx="626" cy="518" r="2"></circle><circle cx="630" cy="518" r="2"></circle><circle cx="635" cy="519" r="2"></circle><circle cx="639" cy="519" r="2"></circle><circle cx="644" cy="519" r="2"></circle><circle cx="649" cy="519" r="2"></circle><circle cx="653" cy="519" r="2"></circle><circle cx="658" cy="519" r="2"></circle><circle cx="662" cy="519" r="2"></circle><circle cx="667" cy="519" r="2"></circle><circle cx="672" cy="519" r="2"></circle><circle cx="676" cy="519" r="2"></circle><circle cx="681" cy="519" r="2"></circle><circle cx="685" cy="520" r="2"></circle><circle cx="690" cy="520" r="2"></circle><circle cx="694" cy="520" r="2"></circle><circle cx="699" cy="521" r="2"></circle><circle cx="704" cy="521" r="2"></circle></g></g></g></g></g><g class="SourcesFooter" style="fill:#777"><g class="clickable" style="fill:#777"><text font-size="12.60" x="15.0" y="567.0"><tspan x="15" y="566.98">Source: UK Department for Energy and Climate Change (DECC); Bank of England Statistics</tspan></text></g><text font-size="12.60" x="15.0" y="582.5"><tspan x="15" y="582.48"><a target='_blank' style='fill: #777;' href='https://ourworldindata.org/wp-content/uploads/2016/07/SOM_SwedishTrustPeople-150x92.png'>OurWorldInData.org/wp-content/uploads/2016/07/SOM_SwedishTrustPeople-150x92.png</a> • <a style="fill: #777;" class="cclogo" href="http://creativecommons.org/licenses/by-sa/4.0/deed.en_US" target="_blank">CC BY-SA</a></tspan></text></g></g></svg>
